icons/arrow-block-left.svg

<svg width="24" height="24" viewBox="0 0 24 24" fill="none" xmlns="http://www.w3.org/2000/svg">
<path fill-rule="evenodd" clip-rule="evenodd" d="M13.05 6.92418L4.23336 12.0004L13.05 17.1285V13.8497H19.95V10.1497H13.05V6.92418ZM14.0734 5.14404C14.3625 5.31752 14.55 5.63706 14.55 5.99966V8.64966H20.1C20.4939 8.64966 20.8251 8.83907 21.0428 9.05683C21.2606 9.27459 21.45 9.60574 21.45 9.99966V13.9997C21.45 14.3936 21.2606 14.7247 21.0428 14.9425C20.8251 15.1603 20.4939 15.3497 20.1 15.3497H14.55V17.9997C14.55 18.3757 14.3466 18.7149 14.0104 18.883C13.692 19.0422 13.3413 19.0088 13.0646 18.8705L13.0434 18.8599L3.23936 13.1575C2.31961 12.6735 2.3202 11.3238 3.24111 10.8409L13.0713 5.18108C13.4127 4.92553 13.8262 4.99574 14.0734 5.14404Z" fill="black"/>
</svg>

<svg xmlns="http://www.w3.org/2000/svg" fill="none" viewBox="0 0 24 24">
  <path fill="#000" fill-rule="evenodd" d="M13.05 6.924 4.233 12l8.817 5.128V13.85h6.9v-3.7h-6.9V6.924Zm1.023-1.78c.29.174.477.493.477.856v2.65h5.55c.394 0 .725.19.943.407.218.218.407.549.407.943v4c0 .394-.19.725-.407.943a1.35 1.35 0 0 1-.943.407h-5.55V18a.978.978 0 0 1-.54.883c-.318.16-.669.126-.945-.012l-.022-.011-9.804-5.702c-.92-.484-.919-1.834.002-2.317l9.83-5.66c.342-.255.755-.185 1.002-.037Z" clip-rule="evenodd"/>
</svg>
